icons/fill-new-office-doc-document-checked.svg

<svg xmlns="http://www.w3.org/2000/svg" width="32px" height="32px" viewBox="0 0 32 32" version="1.1">
    <title>fill-new-office-doc-document-checked</title>
    <g id="fill-new-office-doc-document-checked" stroke-width="1" fill-rule="evenodd">
        <path d="M18,2 L18,11 C18,11.5522847 18.4477153,12 19,12 L28,12 L28,29 C28,29.5522847 27.5522847,30 27,30 L5,30 C4.44771525,30 4,29.5522847 4,29 L4,3 C4,2.44771525 4.44771525,2 5,2 L18,2 Z M21.2071068,15.2928932 C20.8165825,14.9023689 20.1834175,14.9023689 19.7928932,15.2928932 L15,20.085 L12.2071068,17.2928932 C11.8165825,16.9023689 11.1834175,16.9023689 10.7928932,17.2928932 C10.4023689,17.6834175 10.4023689,18.3165825 10.7928932,18.7071068 L14.2928932,22.2071068 C14.6834175,22.5976311 15.3165825,22.5976311 15.7071068,22.2071068 L21.2071068,16.7071068 C21.5976311,16.3165825 21.5976311,15.6834175 21.2071068,15.2928932 Z M20.0010929,2.09031818 C20.1086568,2.13942374 20.2076737,2.2076737 20.2928932,2.29289322 L27.7071068,9.70710678 C27.7925934,9.79259345 27.861004,9.89196417 27.9101431,9.99991892 L20,10 L20.0010929,2.09031818 Z" id="&#24418;&#29366;" />
    </g>
</svg>

<svg xmlns="http://www.w3.org/2000/svg" viewBox="0 0 32 32"><path fill="currentColor" d="M18 2v9a1 1 0 0 0 1 1h9v17a1 1 0 0 1-1 1H5a1 1 0 0 1-1-1V3a1 1 0 0 1 1-1zm3.207 13.293a1 1 0 0 0-1.414 0L15 20.085l-2.793-2.792a1 1 0 0 0-1.414 1.414l3.5 3.5a1 1 0 0 0 1.414 0l5.5-5.5a1 1 0 0 0 0-1.414M20.001 2.09a1 1 0 0 1 .292.203l7.414 7.414a1 1 0 0 1 .203.293H20z"/></svg>
